X:1
T:Title
%%score [ ( 1 2 ) ( 3 4 ) ]
L:1/8
Q:1/4=100
M:4/4
K:D
V:1 treble nm="S A"
V:2 treble 
V:3 bass nm="T B"
V:4 bass 
V:1
"^Fairfield (86.  86. 86)""^Dismiss me not thy service, Lord""^James Turle\n(1802-82)""^Thomas Toke Lynch\n(1818-71)" F2 | %1
 F2 EF D2 D2 | E2 F2 G2 E2 | F2 A2 d2 cB | c6 || A2 | B2 G2 B2 c2 | A2 B2 G2 F2 | B2 B2 d2 c2 | %9
 B6 || d2 | c2 d2 B2 B2 | A2 GF E2 A2 | A2 G2 E2 E2 | D8 |] %15
V:2
 D2 | D2 C2 D2 D2 | B,2 ^D2 E2 E2 | =D2 E2 F2 E2 | E6 || D2 | G2 D2 G2 G2 | F2 F2 E2 C2 | %8
 B,2 E2 F2 FE | D6 || F2 | F2 F2 D2 D2 | ^D2 D2 E2 E2 | =D2 D2 D2 C2 | D8 |] %15
V:3
 A,2 | A,2 G,A, F,2 F,2 | G,2 A,2 B,2 A,2 | A,2 A,2 A,2 ^G,2 | A,6 || D2 | D2 B,2 D2 E2 | %7
 C2 B,2 B,2 ^A,2 | %8
"^1. Dismiss me not thy service, Lord,\nBut train me for thy will:\nFor even I, in fields so broad,\nSome duties may fulfil;\nAnd I will ask for no reward,\nExcept to serve thee still.\n\n2. How many serve, how many more\nMay to the service come!\nTo tend the vines, the grapes to store,\nThou didst appoint for some;\nThou hast thy young men at the war,\nThy little ones at home." B,2 B,2 B,2 ^A,2 | %9
 B,6 || B,2 | C2 A,2 B,2 G,2 | %12
"^3. All works are good, and each is best\nAs most it pleaseth thee;\nEach worker pleases when the rest\nHe serves in charity;\nAnd neither man nor work unblest\nWilt thou permit to be.\n\n4. Our master all the work hath done\nHe asks of us today;\nSharing his service, every one\nShare too his sonship may:\nLord, I would serve and be a son;\nDismiss me not, I pray." A,2 B,A, G,2 G,2 | %13
 F,2 G,2 B,2 A,G, | F,8 |] %15
V:4
 D,2 | D,2 D,2 D,2 B,,2 | G,2 F,2 E,2 C,2 | D,2 C,2 B,,2 E,2 | A,,6 || F,2 | G,2 B,2 G,2 E,2 | %7
 F,2 D,2 E,2 F,2 | G,2 G,2 F,2 F,,2 | B,,6 || B,2 | A,2 F,2 G,2 G,2 | F,2 B,,2 E,2 C,2 | %13
 D,2 B,,2 G,,2 A,,2 | D,8 |] %15

